X: 3
T: The Earl of Essex Measure
T: for couples
P: AAB x 2
C: R.C.M. Ms. 1119
K: G major
M: 6/4
L: 1/8
P: A
 |: "G"G2 | "G"G3AB2 "C"c6 | "C"c3de2 "D"d4"C"c2 | "G"B6- B4G2 | "G"G3AB2 "C"c3d"G"B2 | "D"A4"G"G2 "D"F3EF2 | "G"G6- G4 :| 
P: B
D2 | "C"E3FG2 "D"F3EF2 | "G"G4D2 "C"E3FG2 | "D"F3EF2 "G"G4D2 | "C"E3FG2 "D"F3EF2 | "G"G2"D"d2"C"c2 "G"B3AG2 | "D"F3EF2 "G"G4 |] 

